frontend/images/github-light.svg

<svg width="24" height="24" viewBox="0 0 24 24" fill="none" xmlns="http://www.w3.org/2000/svg">
<path d="M11.999 4.5108C7.85693 4.5108 4.49902 7.86855 4.49902 12.0108C4.49902 15.6228 7.16258 18.7158 10.5 19.3503L10.499 16.9795C10.157 17.143 9.77828 17.2608 9.37403 17.2608C9.0216 17.2608 8.6967 17.1993 8.38965 17.0733C8.1846 16.9893 7.85528 16.6405 7.7334 16.3938C7.47157 15.8635 7.48485 15.292 7.03027 15.292C6.81622 15.292 6.48945 15.2035 6.49117 14.9875C6.4926 14.8098 6.76305 14.7453 6.9834 14.7295C7.68967 14.6785 8.25165 15.3558 8.2959 15.4563C8.3334 15.541 8.41958 15.6895 8.4834 15.7608C8.68838 15.991 9.00398 16.1358 9.37403 16.1358C9.81555 16.1358 10.1977 15.9288 10.3819 15.6198C10.4568 15.4945 10.5779 15.1705 10.6865 15.0108C8.82323 14.8698 7.49902 13.8798 7.49902 11.6358C7.49902 10.9773 7.72065 10.3263 8.08493 9.83129C7.99733 9.32354 7.92225 8.4723 8.24903 7.5108C9.13395 7.5108 9.91418 7.9803 10.4287 8.35455C10.6876 8.30355 10.9733 8.2608 11.249 8.2608H12.749C13.004 8.2608 13.3052 8.3013 13.5459 8.35455C14.086 7.9548 14.8321 7.5108 15.749 7.5108C16.1231 8.61105 15.9382 9.62879 15.8662 10.0188C16.2154 10.5528 16.5148 11.2923 16.4927 11.9268C16.4247 13.87 15.1637 14.92 13.3432 15.0123C13.4648 15.2643 13.499 15.472 13.499 15.7608L13.5012 19.3413C16.8875 18.6513 19.499 15.622 19.499 12.0108C19.499 7.86855 16.1411 4.5108 11.999 4.5108Z" fill="white"/>
</svg>

<svg xmlns="http://www.w3.org/2000/svg" width="24" height="24" fill="none"><path fill="#fff" d="M11.999 4.51a7.5 7.5 0 0 0-7.5 7.5c0 3.613 2.664 6.706 6.001 7.34l-.001-2.37c-.342.163-.72.28-1.125.28-.352 0-.677-.06-.984-.187-.205-.084-.535-.433-.657-.68-.261-.53-.248-1.101-.703-1.101-.214 0-.54-.088-.539-.304.002-.178.272-.243.492-.258.707-.052 1.269.626 1.313.726.037.085.124.234.187.305.205.23.521.375.891.375.442 0 .824-.207 1.008-.516.075-.125.196-.45.305-.61-1.864-.14-3.188-1.13-3.188-3.374 0-.659.222-1.31.586-1.805a4.7 4.7 0 0 1 .164-2.32c.885 0 1.665.47 2.18.844.259-.051.544-.094.82-.094h1.5c.255 0 .556.04.797.094.54-.4 1.286-.844 2.203-.844.374 1.1.19 2.118.117 2.508.35.534.649 1.273.627 1.908-.068 1.943-1.33 2.993-3.15 3.085.122.252.156.46.156.749l.002 3.58c3.387-.69 5.998-3.719 5.998-7.33a7.5 7.5 0 0 0-7.5-7.5"/></svg>
